X:1
T:The Hand That Was Nailed to the Cross
T:The Hand That Was Nailed to the Cross
T:Daniel  Brink Towner
T:Harriet H. Pierson, 1905
T:Public Domain Courtesy of the Cyber Hymnal™
T:Public Domain Courtesy of the Cyber Hymnal™
C:Daniel  Brink Towner
Z:Public Domain
Z:Courtesy of the Cyber Hymnal™
%%score ( 1 2 ) ( 3 4 )
L:1/8
Q:1/4=160
M:6/4
K:D
V:1 treble 
V:2 treble 
V:3 bass 
V:4 bass 
V:1
 [FA]2 | [FA]2 [DF]2 [EG]2 [FA]2 [GB]2 [DF]2 | [FA]4 [^E^G]2 [=E=G]4 [EG]2 | %3
w: 1.~The|hand that was nailed to the|cross of woe, In|
w: 2.~E’en|now I can see, through a|mist of tears, That|
w: 3.~The|hand that wrought won- ders in|days of old, Holds|
 [EG]2 [CE]2 [DF]2 [EG]2 [Gc]2 [GB]2 | [GB]4 [^E^G]2 [FA]4 [FA]2 | %5
w: love reach- es out to the|world be- low; ’Tis|
w: hand still out- stretched o’er the|gulf of years, With|
w: trea- sure more pre- cious than|gems or gold, The|
 [FA]2 [DF]2 [EG]2 [FA]2 [Fd]2 [Ac]2 | [Ac]4 [GB]2 [GB]4 [GB]2 | [Gd]2 [Ac]2 [GB]2 [FA]2 [DF]2 D2 | %8
w: beck- on- ing now to the|souls that roam, And|point- ing the way to the|
w: heal- ing and hope for my|sin sick soul, One|touch of its fin- ger will|
w: price of re- demp- tion from|sin and shame, The|gift of sal- va- tion through|
 [DF]4 [CE]2 !fermata!D4 ||"^Refrain" [FA]2 | [FA]2 [DF]2 [EG]2 [FA]2 [Gd]2 [GB]2 | %11
w: heav- ’nly home.|The|hand of my Sav- ior I|
w: make me whole!|||
w: Je- sus’ name.|||
 [FA]6- [FA]4 [FA]2 | [EG]2 [CE]2 [DF]2 [EG]2 [Gc]2 [GB]2 | [FA]6- [FA]4 [FA]2 | %14
w: see, * The|hand that was wound- ed for|me; * ’Twill|
w: |||
w: |||
 [FA]2 [^E^G]2 [FA]2 [Fd]2 [=Gc]2 [Ad]2 | [Ge]2 [Gd]2 [GB]2 [FA]4 [FA]2 | %16
w: lead me in love to the|man- sions a- bove, The|
w: ||
w: ||
 [GB]2 [Gd]2 [GB]2"^rall." [FA]2 [DF]2 [CE]2 | D6- [A,D]4 |] %18
w: hand that was wound- ed for|me! *|
w: ||
w: ||
V:2
 x2 | x12 | x12 | x12 | x12 | x12 | x12 | x10 D2 | x6 D4 || x2 | x12 | x12 | x12 | x12 | x12 | %15
 x12 | x12 | D2 C2 B,2 x4 |] %18
V:3
 [D,D]2 | [D,D]2 [D,A,]2 [D,A,]2 [D,D]2 [D,D]2 [D,D]2 | [A,D]4 [A,D]2 [A,C]4 [A,C]2 | %3
w: ~|~ ~ ~ ~ ~ ~|~ ~ ~ ~|
 [A,C]2 A,2 A,2 [A,C]2 [A,E]2 [A,C]2 | [D,D]4 [D,B,]2 [D,A,]4 [D,D]2 | %5
w: ~ ~ ~ ~ ~ ~|~ ~ ~ ~|
 [D,D]2 [D,A,]2 [D,A,]2 [D,D]2 [D,A,]2 [F,D]2 | [G,D]4 [G,D]2 [G,D]4 [G,D]2 | %7
w: ~ ~ ~ ~ ~ ~|~ ~ ~ ~|
 [G,B,]2 [G,C]2 [G,D]2 [D,D]2 [D,A,]2 [B,,^G,]2 | [A,,A,]4 [A,,G,]2 !fermata![D,F,]4 || [D,D]2 | %10
w: ~ ~ ~ ~ ~ ~|~ ~ ~|~|
 [D,D]2 [D,A,]2 [D,A,]2 [D,D]2 [D,B,]2 [D,D]2 | D2 C2 [D,B,]2 [D,A,]4 [D,D]2 | %12
w: ~ ~ ~ ~ ~ my|Sav- ior I see, ~|
 [A,,C]2 [A,,A,]2 [A,,A,]2 [A,,C]2 [A,,E]2 [A,,C]2 | D2 C2 [D,B,]2 [D,A,]4 [D,D]2 | %14
w: ~ ~ ~ ~ ~ was|wound- ed for me; ~|
 [D,D]2 [D,B,]2 [D,A,]2 [D,A,]2 [E,A,]2 [F,A,]2 | [G,B,]2 [G,B,]2 [G,D]2 [D,D]4 [D,D]2 | %16
w: ~ ~ ~ ~ ~ ~|~ ~ ~ ~ ~|
 [G,D]2 [G,B,]2 [G,D]2 [A,D]2 A,2 [A,,G,]2 | (F,2 A,2 G,2 [D,F,]4) |] %18
w: ~ ~ ~ ~ ~ was|wounded~for~me! * * *|
V:4
 x2 | x12 | x12 | x2 A,2 A,2 x6 | x12 | x12 | x12 | x12 | x10 || x2 | x12 | D,4 x8 | x12 | D,4 x8 | %14
 x12 | x12 | x8 A,2 x2 | D,6- x4 |] %18

